img/icon-telegram.svg

<svg width="22" height="24" viewBox="0 0 22 24" fill="none" xmlns="http://www.w3.org/2000/svg">
<path d="M11 0.375C4.92339 0.375 0 5.57812 0 12C0 18.4219 4.92339 23.625 11 23.625C17.0766 23.625 22 18.4219 22 12C22 5.57812 17.0766 0.375 11 0.375ZM16.4024 8.33906L14.5972 17.3297C14.4641 17.9672 14.1048 18.1219 13.6036 17.8219L10.8536 15.6797L9.52742 17.0297C9.38105 17.1844 9.25686 17.3156 8.97298 17.3156L9.16815 14.3578L14.2645 9.49219C14.4863 9.28594 14.2157 9.16875 13.923 9.375L7.6246 13.5656L4.91008 12.6703C4.32016 12.4734 4.30685 12.0469 5.03427 11.7469L15.6395 7.425C16.1319 7.2375 16.5621 7.55156 16.4024 8.33906Z" fill="white"/>
</svg>

<svg width="22" height="24" fill="none" xmlns="http://www.w3.org/2000/svg"><path d="M11 .375C4.9234.375 0 5.5781 0 12s4.9234 11.625 11 11.625S22 18.4219 22 12 17.0766.375 11 .375zm5.4024 7.964l-1.8052 8.9907c-.1331.6375-.4924.7922-.9936.4922l-2.75-2.1422-1.3262 1.35c-.1463.1547-.2705.2859-.5544.2859l.1951-2.9578 5.0964-4.8656c.2218-.2063-.0488-.3235-.3415-.1172l-6.2984 4.1906-2.7145-.8953c-.59-.1969-.6033-.6234.1242-.9234L15.6395 7.425c.4924-.1875.9226.1266.7629.914z" fill="#fff"/></svg>
